!!!!SEGMENT: 028-1-BH-004.krn
!!!COM: Chopin, Fryderyk
!!!OTL: Prelude No. 4
!!!OPS: Op. 28
!!!PTL: Vingt-quatre Préludes pour le Piano
!!!PPR: Breitkopf & Härtel
!!!PPP: Leipzig
!!!AGN: Prelude
!!!NIFC-rismID: 1001013104
!!!NIFC-shelfmark: PL-Wbfc 4372/n
!!!OMD: Largo.
!!!system-decoration: {(s1,s2)}
**kern	**kern	**dynam
*part1	*part1	*part1
*	*I"N|o. 4.	*
*staff2	*staff1	*
*clefF4	*clefG2	*
*k[f#]	*k[f#]	*
*e:	*e:	*
*M2/2	*M2/2	*
*met(c|)	*met(c|)	*
*MM63	*MM63	*
!	!LO:TX:i:b:B:t=espress.	!
4r	(>8.BL	.
.	16bJk	.
=1	=1	=1
(>8eL 8B 8G	2.b	.
8e 8B 8G	.	.
8e 8B 8G	.	.
8eJ 8B 8G	.	.
8eL 8B 8G	.	.
8e 8B 8G	.	.
8e 8B 8G	4cc	.
8eJ 8B 8G	.	.
=2	=2	=2
8eL 8A 8F#	2.b	.
8e 8A 8F#	.	.
8e 8A 8F#	.	.
8eJ 8A 8F#	.	.
8e-XL 8A 8F#	.	.
8e- 8A 8F#	.	.
8e- 8A 8F#	4cc	.
8e-J 8A 8F#	.	.
=3	=3	=3
8e-XL 8A 8Fn	2.b	.
8e- 8A 8F	.	.
8e- 8A 8F	.	.
8e-J 8A 8F	.	.
8dL 8A 8F	.	.
8d 8A 8F	.	.
8d 8G#X 8F	4cc	.
8dJ 8G# 8F	.	.
=4	=4	=4
*tremolo	*	*
!LO:TX:t=P:cztery kropki nad dźwiękiem:problem	!	!
8dL 8G#X 8E	2.b	.
8d 8G# 8E	.	.
8d 8G# 8E	.	.
8dJ 8G# 8E	.	.
*Xtremolo	*	*
8dL 8Gn 8E	.	.
8d 8G 8E	.	.
8c#X 8G 8E	4b-X\	.
8c#J 8G 8E	.	.
=5	=5	=5
*tremolo	*	*
!LO:TX:t=P:cztery kropki nad dźwiękiem:problem	!	!
8cnL 8G 8E	2.a\	.
8c 8G 8E	.	.
8c 8G 8E	.	.
8cJ 8G 8E	.	.
*Xtremolo	*	*
8cL 8F# 8E	.	.
8c 8F# 8E	.	.
8c 8F# 8E	4bn\	.
8cJ 8F# 8E	.	.
!!LO:LB:g=original
=6	=6	=6
*tremolo	*	*
!LO:TX:t=P:cztery kropki nad dźwiękiem:problem	!	!
8cL 8F# 8E	2.a	.
8c 8F# 8E	.	.
8c 8F# 8E	.	.
8cJ 8F# 8E	.	.
!LO:TX:t=P:cztery kropki nad dźwiękiem:problem	!	!
8cL 8F# 8D#X	.	.
8c 8F# 8D#	.	.
8c 8F# 8D#	4b\	.
8cJ 8F# 8D#	.	.
=7	=7	=7
!LO:TX:t=P:cztery kropki nad dźwiękiem:problem	!	!
8cL 8F# 8Dn	2.a	.
8c 8F# 8D	.	.
8c 8F# 8D	.	.
8cJ 8F# 8D	.	.
!LO:TX:t=P:cztery kropki nad dźwiękiem:problem	!	!
8cL 8F# 8D	.	.
8c 8F# 8D	.	.
8c 8F# 8D	8.bL\	.
8cJ 8F# 8D	.	.
.	16aJk	.
=8	=8	=8
8cL 8Fn 8D	2.a)	.
8c 8F 8D	.	.
8c 8F 8D	.	.
8cJ 8F 8D	.	.
8BL 8F 8D	.	.
8B 8F 8D	.	.
8B 8F 8D	[>4g#X^<	.
8BJ 8F 8D	.	.
*Xtremolo	*	*
=9	=9	=9
8BL 8E 8C	4g#X]	.
8B 8E 8C	.	.
8A 8E 8C	(>8aL	<
8AJ 8E 8C	8bJ	.
*tremolo	*	*
8AL 8E 8C	8dd/L	[ >
8A 8E 8C	8cc	.
8A 8E 8C	8e	.
8AJ 8E 8C	8aJ	]]
*Xtremolo	*	*
=10	=10	=10
8AL 8E 8BB	2.f#)	.
8A 8E 8BB	.	.
8A 8D#X 8BB	.	.
8AJ 8D# 8BB	.	.
*tremolo	*	*
8AL 8E 8C	.	.
8A 8E 8C	.	.
8A 8E 8C	(>4a	.
8AJ 8E 8C	.	.
=11	=11	=11
!LO:TX:t=P:cztery kropki nad dźwiękiem:problem	!	!
8AL 8D#X 8BB	2.f#)	.
8A 8D# 8BB	.	.
8A 8D# 8BB	.	.
8AJ 8D# 8BB	.	.
!LO:TX:t=P:cztery kropki nad dźwiękiem:problem	!	!
8AL 8D# 8BB	.	.
8A 8D# 8BB	.	.
.	8qb/	.
8A 8D# 8BB	(>4a	.
8AJ 8D# 8BB	.	.
*Xtremolo	*	*
=12	=12	=12
4A) 4D#X 4BB	(<8gL)	.
.	8f#	.
4r	8c^>	<
.	8BJ	.
2r	8d#XL	.
.	8f#	.
!	!LO:TX:a:t=P:note-head-side tuplet number:problem	!
!	!LO:TUP:b	!
.	12ddn	[
.	12cc	.
.	12bJ)	.
!!LO:LB:g=original
=13	=13	=13
*tremolo	*	*
!LO:TX:t=P:cztery kropki nad dźwiękiem:problem	!	!
(>8eL 8B 8G	(>2.b\	.
8e 8B 8G	.	.
8e 8B 8G	.	.
8eJ 8B 8G	.	.
!LO:TX:t=P:cztery kropki nad dźwiękiem:problem	!	!
8eL 8B 8G	.	.
8e 8B 8G	.	.
8e 8B 8G	4cc	.
8eJ 8B 8G	.	.
*Xtremolo	*	*
=14	=14	=14
8eL 8A 8F#	2.b\	.
8e 8A 8F#	.	.
8e 8A 8F#	.	.
8eJ 8A 8F#	.	.
8e-XL 8A 8Fn	.	.
8e- 8A 8F	.	.
8e- 8A 8F	4cc	.
8e-J 8A 8F	.	.
=15	=15	=15
8e-XL 8A-X 8Fn	2.b	.
8e- 8A- 8F	.	.
8d 8A- 8F	.	.
8dJ 8A- 8F	.	.
*tremolo	*	*
!LO:TX:t=P:cztery kropki nad dźwiękiem:problem	!	!
8dL 8G#X 8En)	.	.
8d 8G# 8E	.	.
8d 8G# 8E	4cc	.
8dJ 8G# 8E	.	.
*Xtremolo	*	*
=16	=16	=16
8dL 8Gn 8E	8.bL\	<
8d 8G 8E	.	.
.	16a#XJk	.
!	!LO:TX:a:iB:t=stretto _:dur=11qe:ext=ud:problem:text with extention lines	!
8c#X 8G 8E	4a#S\	.
8c#J 8G 8E	.	[
8A#XL 8E 8C#X	4gg	>
8A# 8E 8C#	.	.
8An 8E 8Cn	8.ff#L	.
8AJ 8E 8C	.	.
.	16eeJk	]
=17	=17	=17
*ped	*	*
!LO:TX:b:t=P:problem:znak pedalizacji przed nutą	!	!
(>8BBL 8BBB	8eeL	f
8a 8f# 8c 8A	8dd#X	.
8a 8f# 8c 8A	8ccc	.
*Xped	*	*
8aJ 8f# 8c 8A	8dd#J	.
8f#L 8d#X 8B 8G	8dd#L	>
8e 8B 8G	8ee	.
8e 8B 8G	8gg	.
8eJ 8B 8G	8bJ	.
!!LO:LB:g=original
=18	=18	=18
8eL 8c 8A	8ddL	]
8eJ 8c 8A	8cc	.
*ped	*	*
!	!LO:TX:a:t=P:note-head-side tuplet number:problem	!
!	!LO:TUP:a	!
8AAL	12ee	.
.	12e	.
8cJ 8F# 8E	.	.
*Xped	*	*
.	12aJ	.
8BL 8E 8BB	4.f#	.
8B 8E 8BB	.	>
8A 8E 8C	.	.
8AJ 8E 8C	8a	.
=19	=19	=19
*tremolo	*	*
!LO:TX:t=P:cztery kropki nad dźwiękiem:problem	!	!
8BL 8E 8BB	2.f#)	p
8B 8E 8BB	.	.
8B 8E 8BB	.	.
8BJ 8E 8BB	.	.
!LO:TX:t=P:cztery kropki nad dźwiękiem:problem	!	!
8AL 8E 8C	.	.
8A 8E 8C	.	.
.	8qb/	.
8A 8E 8C	(>4a	.
8AJ 8E 8C	.	.
=20	=20	=20
!LO:TX:t=P:cztery kropki nad dźwiękiem:problem	!	!
8BL 8E 8BB	[<2.f#	.
8B 8E 8BB	.	.
8B 8E 8BB	.	.
8BJ 8E 8BB	.	.
*Xtremolo	*	*
8BL 8D#X 8BB	.	.
8B 8D# 8BB	.	.
8A 8D# 8BB	8.f#L])	<
8AJ 8D# 8BB	.	.
.	(>16eJk	.
=21	=21	=21
*tremolo	*	*
!LO:TX:t=P:cztery kropki nad dźwiękiem:problem	!	!
8GL 8C	2.e	[[
8G 8C	.	.
8G 8C	.	.
8GJ 8C	.	.
*Xtremolo	*	*
8B-XL 8C	.	.
8B- 8C	.	.
!	!LO:TX:b:i:B:t=smorz.	!
8A 8E 8C	4f#	.
8AJ 8E 8C	.	.
=22	=22	=22
8AL 8E 8BB	2.e	.
8A 8E 8BB	.	.
8G#X 8E 8BB	.	.
8G#J 8E 8BB	.	.
*tremolo	*	*
!LO:TX:t=P:cztery kropki nad dźwiękiem:problem	!	!
8GnL 8E 8BB	.	.
8G 8E 8BB	.	.
8G 8E 8BB	4f#	.
8GJ 8E 8BB	.	.
*Xtremolo	*	*
=23	=23	=23
2G) 2C 2BB-X	2e)	.
2r;>	2r;>	.
=24	=24	=24
!	!	!LO:DY:rj
(<2BBn\ 2BBB\	(>2e 2B< 2F#< 2E<	pp
2BB\ 2FF#\ 2BBB\	2d#X 2B< 2F#< 2D#X<	.
=25	=25	=25
1EE;< 1EEE)	1e;>) 1B< 1G< 1E<	.
!LO:TX:b:B:t=Fine.	!	!
.	.	.
==	==	==
*-	*-	*-
!!title: @{OTL}; @{OPS} @{ONM} publisher: @{PPR}
!!!RDF**kern: > = above
!!!RDF**kern: < = below
!!!RDF**kern: N = linked
!!!RDF**dynam: > = "dim.", fontstyle = "bold-italic"
!!!RDF**dynam: < = "cres.", fontstyle = "bold-italic"
!!!ENC: Wojciech Jakubiak-Danek
!!!END: 2019-06-17
!!!EED: Leszek Kubiak
!!!EST: 2019-07-12
!!!EED2: Mateusz Mrugas
!!!EST2: 2020-04-23
!!!rism-genre: Prelude
!!!rism-key: E minor
!!!rism-opus: op.  28, no. 4
!!!rism-title: Prelude in E minor op.  28, no. 4
!!!rism-permalink: https://opac.rism.info/search?id=1001013104&View=rism
!!!rism-773a-OPR: 1001013083
!!!rism-parent-permalink: https://opac.rism.info/search?id=1001013083&View=rism
